svg/blobs-icons/no-decorations/tomato.svg

<svg xmlns="http://www.w3.org/2000/svg" xmlns:xlink="http://www.w3.org/1999/xlink" preserveAspectRatio="xMidYMid" width="208" height="217" viewBox="0 0 208 217"><defs><style>.cls-3{fill:#ff3a2f}.cls-4{fill:#0cb04a}.cls-5{fill:#010101;opacity:.35}.cls-8{fill:#010101;opacity:.25}.cls-10{fill:#020403;opacity:.35}.cls-11{fill:#fff}</style></defs><g id="group-87svg"><path d="M153.974 40.39c-12.372-5.793-30.941-10.574-50.33-1.307-19.39-9.267-37.96-4.486-50.332 1.307C21.529 56.476.015 87.304.015 122.713c0 52.005 46.398 94.169 103.629 94.169s103.627-42.164 103.627-94.169c0-35.409-21.514-66.237-53.297-82.323z" id="path-1" class="cls-3" fill-rule="evenodd"/><path d="M153.974 40.39c-12.372-5.792-30.941-10.574-50.33-1.307-19.39-9.267-37.96-4.485-50.332 1.307-15.5 7.846-28.53 19.215-37.841 32.895C16.126 72.973 41.42 60.997 58.925 62.327 58.925 62.327 78.439 61.536 72.93 82.118 72.859 82.365 73.128 82.472 73.334 82.277c10.803-10.489 22.54-17.516 30.31-17.516C111.413 64.761 123.149 71.788 133.956 82.277 134.158 82.472 134.427 82.365 134.357 82.118 128.848 61.536 148.361 62.327 148.361 62.327c17.505-1.33 42.8 10.646 43.454 10.958C182.504 59.605 169.475 48.236 153.974 40.39z" id="path-2" class="cls-4" fill-rule="evenodd"/><path d="M58.925 62.326C50.405 61.68 40.051 64.188 31.579 66.968c-2.949 3.262-5.678 6.697-8.133 10.305C24.1 76.962 49.395 64.984 66.9 66.313 66.9 66.313 68.567 66.263 70.768 66.671 66.376 62.038 58.925 62.326 58.925 62.326z" id="path-3" class="cls-5" fill-rule="evenodd"/><path d="M191.815 73.285C191.161 72.973 165.866 60.996 148.361 62.326c0 0-17.494-.677999999999997-14.63 16.781C136.472 81.238 139.23 83.642 141.93 86.263 142.133 86.459 142.401 86.352 142.332 86.106 136.822 65.523 156.335 66.313 156.335 66.313 168.113 65.419 184.62 71.768 193.358 75.563L191.815 73.285s0 0 0 0z" id="path-4" class="cls-5" fill-rule="evenodd"/><path d="M103.644 64.761C97.76 64.761 89.604 68.799 81.301 75.308 82.072 78.02 82.135 81.505 80.904 86.106 80.833 86.352 81.103 86.459 81.308 86.263c10.803-10.486 22.54-17.514 30.31-17.514C113.726 68.749 116.144 69.305 118.739 70.269 113.078 66.81 107.79 64.761 103.644 64.761z" id="path-5" class="cls-5" fill-rule="evenodd"/><path d="M153.974 40.39C147.312 37.272 138.845 34.467 129.428 33.969c23.162 17.268 37.973 43.443 37.973 72.796.0 52.005-46.397 94.168-103.629 94.168-7.124.0-14.079-.655000000000001-20.8-1.899 17.058 11.217 38.007 17.848 60.672 17.848 57.231.0 103.627-42.164 103.627-94.169.0-35.409-21.514-66.238-53.297-82.323z" id="path-6" class="cls-8" fill-rule="evenodd"/><path d="M103.67 48.009C102.355 18.366 126.85.003 126.85.003S126.807.003 126.807.003s-46.37.0-46.37.0 24.504 18.363 23.185 48.006" id="path-7" class="cls-4" fill-rule="evenodd"/><path d="M126.807.003s-46.37.0-46.37.0S84.165 2.822 88.628 7.977h26.218S114.888 7.977 114.888 7.977 106.369 14.416 99.647 25.756C102.268 32.176 103.995 39.623 103.622 48.009H103.67C102.355 18.366 126.85.003 126.85.003S126.807.003 126.807.003z" id="path-8" class="cls-10" fill-rule="evenodd"/><path d="M34.201 167.726C32.772 167.726 31.345 167.163 30.281 166.043 29.118 164.821 1.979 135.609 18.657 94.481 19.78 91.706 22.948 90.371 25.718 91.494 28.494 92.62 29.831 95.781 28.707 98.556c-13.995 34.508 8.48 59.001 9.442 60.026C40.197 160.76 40.099 164.188 37.928 166.241 36.878 167.234 35.539 167.726 34.201 167.726z" id="path-9" class="cls-11" fill-rule="evenodd"/></g></svg>

<svg xmlns="http://www.w3.org/2000/svg" xmlns:xlink="http://www.w3.org/1999/xlink" preserveAspectRatio="xMidYMid" width="208" height="217" viewBox="0 0 208 217">
  <defs>
    <style>

      .cls-3 {
        fill: #ff3a2f;
      }

      .cls-4 {
        fill: #0cb04a;
      }

      .cls-5 {
        fill: #010101;
        opacity: 0.35;
      }

      .cls-8 {
        fill: #010101;
        opacity: 0.25;
      }

      .cls-10 {
        fill: #020403;
        opacity: 0.35;
      }

      .cls-11 {
        fill: #ffffff;
      }
    </style>
  </defs>
  <g id="group-87svg">
    <path d="M153.974,40.390 C141.602,34.597 123.033,29.816 103.644,39.083 C84.254,29.816 65.684,34.597 53.312,40.390 C21.529,56.476 0.015,87.304 0.015,122.713 C0.015,174.718 46.413,216.882 103.644,216.882 C160.875,216.882 207.271,174.718 207.271,122.713 C207.271,87.304 185.757,56.476 153.974,40.390 Z" id="path-1" class="cls-3" fill-rule="evenodd"/>
    <path d="M153.974,40.390 C141.602,34.598 123.033,29.816 103.644,39.083 C84.254,29.816 65.684,34.598 53.312,40.390 C37.812,48.236 24.782,59.605 15.471,73.285 C16.126,72.973 41.420,60.997 58.925,62.327 C58.925,62.327 78.439,61.536 72.930,82.118 C72.859,82.365 73.128,82.472 73.334,82.277 C84.137,71.788 95.874,64.761 103.644,64.761 C111.413,64.761 123.149,71.788 133.956,82.277 C134.158,82.472 134.427,82.365 134.357,82.118 C128.848,61.536 148.361,62.327 148.361,62.327 C165.866,60.997 191.161,72.973 191.815,73.285 C182.504,59.605 169.475,48.236 153.974,40.390 Z" id="path-2" class="cls-4" fill-rule="evenodd"/>
    <path d="M58.925,62.326 C50.405,61.680 40.051,64.188 31.579,66.968 C28.630,70.230 25.901,73.665 23.446,77.273 C24.100,76.962 49.395,64.984 66.900,66.313 C66.900,66.313 68.567,66.263 70.768,66.671 C66.376,62.038 58.925,62.326 58.925,62.326 Z" id="path-3" class="cls-5" fill-rule="evenodd"/>
    <path d="M191.815,73.285 C191.161,72.973 165.866,60.996 148.361,62.326 C148.361,62.326 130.867,61.648 133.731,79.107 C136.472,81.238 139.230,83.642 141.930,86.263 C142.133,86.459 142.401,86.352 142.332,86.106 C136.822,65.523 156.335,66.313 156.335,66.313 C168.113,65.419 184.620,71.768 193.358,75.563 C193.358,75.563 191.815,73.285 191.815,73.285 C191.815,73.285 191.815,73.285 191.815,73.285 Z" id="path-4" class="cls-5" fill-rule="evenodd"/>
    <path d="M103.644,64.761 C97.760,64.761 89.604,68.799 81.301,75.308 C82.072,78.020 82.135,81.505 80.904,86.106 C80.833,86.352 81.103,86.459 81.308,86.263 C92.111,75.777 103.848,68.749 111.618,68.749 C113.726,68.749 116.144,69.305 118.739,70.269 C113.078,66.810 107.790,64.761 103.644,64.761 Z" id="path-5" class="cls-5" fill-rule="evenodd"/>
    <path d="M153.974,40.390 C147.312,37.272 138.845,34.467 129.428,33.969 C152.590,51.237 167.401,77.412 167.401,106.765 C167.401,158.770 121.004,200.933 63.772,200.933 C56.648,200.933 49.693,200.278 42.972,199.034 C60.030,210.251 80.979,216.882 103.644,216.882 C160.875,216.882 207.271,174.718 207.271,122.713 C207.271,87.304 185.757,56.475 153.974,40.390 Z" id="path-6" class="cls-8" fill-rule="evenodd"/>
    <path d="M103.670,48.009 C102.355,18.366 126.850,0.003 126.850,0.003 C126.850,0.003 126.807,0.003 126.807,0.003 C126.807,0.003 80.437,0.003 80.437,0.003 C80.437,0.003 104.941,18.366 103.622,48.009 C103.622,48.009 103.622,48.009 103.622,48.009 " id="path-7" class="cls-4" fill-rule="evenodd"/>
    <path d="M126.807,0.003 C126.807,0.003 80.437,0.003 80.437,0.003 C80.437,0.003 84.165,2.822 88.628,7.977 C88.628,7.977 114.846,7.977 114.846,7.977 C114.846,7.977 114.888,7.977 114.888,7.977 C114.888,7.977 106.369,14.416 99.647,25.756 C102.268,32.176 103.995,39.623 103.622,48.009 C103.622,48.009 103.670,48.009 103.670,48.009 C102.355,18.366 126.850,0.003 126.850,0.003 C126.850,0.003 126.807,0.003 126.807,0.003 Z" id="path-8" class="cls-10" fill-rule="evenodd"/>
    <path d="M34.201,167.726 C32.772,167.726 31.345,167.163 30.281,166.043 C29.118,164.821 1.979,135.609 18.657,94.481 C19.780,91.706 22.948,90.371 25.718,91.494 C28.494,92.620 29.831,95.781 28.707,98.556 C14.712,133.064 37.187,157.557 38.149,158.582 C40.197,160.760 40.099,164.188 37.928,166.241 C36.878,167.234 35.539,167.726 34.201,167.726 Z" id="path-9" class="cls-11" fill-rule="evenodd"/>
  </g>
</svg>
